X: 580
T: Dinlendi Başım
C: Lem´i Atlı
O: Turkey
F: http://compmusic.upf.edu/node/140
N: ferahfeza--sarki--yuruksemai_ii--dinlendi_basim--lemi_atli
N: makam= ferahfeza
N: form= sarki
N: usul= yuruksemai_ii = 6/8
M: 6/8
L: 1/16
K: C _B   
Q: 1/4=180
%%MIDI tuningsystem comma53
B6B6  | BABd dccB BAA^G  | A6A6  | AGAc cBBA AGG^F  | 
w:  ARANAĞME  |   |   |   | 
G12  | G^FGB BAAG G=FFE  | A2B2 ^c2d2 e2f2  | \
w:   |   |   | 
efed ^cBA6  | 
w:   | 
B6BA Bddc  | cBBA AGAG ^FAG2  | G6G^F GccB  | 
w:   |   |   | 
BAAG GFGF EGF2  | F6FE FAAG  | GFFE EDFE D^CD2  | 
w:   |   |   | 
E2F2 G2FE FED^C  | D12  | B6B6  | BABd dccB BAA^G  | 
w:   |   |  ARANAĞME  |   | 
A6A6  | AGAc cBBA AGG^F  | G12  | G^FGB BAAG G=FFE  | 
w:   |   |   |   | 
A2B2 ^c2d2 e2f2  | efed ^cBA6  | B6BA Bddc  | \
w:   |   |   | 
cBBA AGAG ^FAG2  | 
w:   | 
G6G^F GccB  | BAAG GFGF EGF2  | F6FE FAAG  | 
w:   |   |   | 
GFFE EDFE D^CD2  | E2F2 G2FE FED^C  | D12  | 
w:   |   |   | 
d6d2 a2g2  | g2f2 e2f4z2  | f4 a2g2 f2e2  | \
w:  Din len  |  di  *  ba şım   |  dün  ge ce  bir   | 
d4 e2f2 edd^c  | 
w:  par ça  di zin  | 
d8-d2z2  | f6e4d2  | ^c4 B2A4z2  | G4 B2AG FED2  | \
w:  de    |  Din len  |  di  ba şım   |  dün  ge ce  *  bir   | 
^c4 d2cB B3A  | 
w:  par ça  di *  zin  | 
A6Ac B4  | B6BA G2d2  | c2B2 A2G2 F4  | \
w:  de   SAZ  |  Bir  göz  |  le *  ri  â  | 
GFE2 F2G2 A4  | D4 E2F2 EDD^C  | 
w:  hû  *  *  ki  ta mam   |  on  se ki zin  | 
D6Ac B4  | B6BA G2d2  | c2B2 A2G2 F4  | \
w:  de   SAZ  |  Bir  göz  |  le *  ri  â  | 
GFE2 F2G2 A4  | D4 E2F2 EDD^C  | 
w:  hû  *  *  ki  ta mam   |  on  se ki zin  | 
D6c6  | c=Bcd egf6  | f4 edd2 a4  | g4 a2ag fef2  | 
w:  de   SAZ  |  An *  *  *  *  *  mış  |  tı  gö *  nül   |  aş kı nı  *  yıl  | 
g4 a2ag f2e2  | f8-f2z2  | a6f2 e2d2  | \
w:  lar ca  i *  zin  |  de    |  An mış  | 
^c4 B2A6  | G4 B2AG FED2  | 
w:  tı  gö nül   |  aş kı nı  *  yıl  | 
^c4 d2cB B3A  | A6Ac B4  | B6BA G2d2  | \
w:  lar ca  i *  zin  |  de   SAZ  |  Bir  göz  | 
c2B2 A2G2 F4  | GFE2 F2G2 A4  | 
w:  le *  ri  â  |  hû  *  *  ki  ta mam   | 
D4 E2F2 EDD^C  | D6Ac B4  | B6BA G2d2  | \
w:  on  se ki zin  |  de   SAZ  |  Bir  göz  | 
c2B2 A2G2 F4  | 
w:  le *  ri  â  | 
GFE2 F2G2 A4  | D4 E2F2 EDD^C  | D6B6  | \
w:  hû  *  *  ki  ta mam   |  on  se ki zin  |  de    | 
B6BA Bddc  | 
w:  ARANAĞME  | 
cBBA A^GA6  | A6AG AccB  | BAAG G^FG6  | 
w:   |   |   | 
G6G^F GBBA  | AGGF FEA2 B2^c2  | d2e2 f2ef ed^cB  | 
w:   |   |   | 
A6B6  | BABd dccB BAAG  | AG^FA G2G6  | \
w:   |   |   | 
G^FGc cBBA AGG=F  | 
w:   | 
GFEG F2F6  | FEFA AGGF FEED  | FED^C D2E2 F2G2  | 
w:   |   |   | 
FEFE D^CD6  | D6B6  | B6BA Bddc  | cBBA A^GA6  | 
w:   |   |  ARANAĞME  |   | 
A6AG AccB  | BAAG G^FG6  | G6G^F GBBA  | 
w:   |   |   | 
AGGF FEA2 B2^c2  | d2e2 f2ef ed^cB  | \
w:   |   | 
A6B6  | BABd dccB BAAG  | 
w:   |   | 
AG^FA G2G6  | G^FGc cBBA AGG=F  | GFEG F2F6  | 
w:   |   |   | 
FEFA AGGF FEED  | FED^C D2E2 F2G2  | \
w:   |   | 
FEFE D^CD6  | 
w:   | 
D6d6  | d2a2 g2g2 f2e2  | f4 z2f4a2  | g2f2 e2d4e2  | \
w:  *  Din  |  len *  *  di  *  ba  |  şım  dün  ge  |  ce  bir  *  par ça   | 
f2ed d^cd6  | 
w:  di zin *  *  *  de    | 
d4 z2f6  | e4 d2^c4B2  | A4 z2G4B2  | AGFE D2^c4d2  | \
w:  *  Din  |  len *  di  ba  |  şım  dün  ge  |  ce  *  bir  *  *  par ça   | 
^cBB3AA6  | 
w:  di *  zin *  de    | 
AcB4B6  | BAG2 d2c2 B2A2  | G2F4GF E2F2  | \
w:  SAZ *  *  Bir   |  göz *  *  *  le *  ri   |  â *  hû  *  *  ki   | 
G2A4D4E2  | 
w:  ta mam  on  se  | 
F2ED D^CD6  | AcB4B6  | BAG2 d2c2 B2A2  | \
w:  ki zin *  *  *  de    |  SAZ *  *  Bir   |  göz *  *  *  le *  ri   | 
G2F4GF E2F2  | 
w:  â *  hû  *  *  ki   | 
G2A4D4E2  | F2ED D^CD6  | c6c=B cdeg  | \
w:  ta mam  on  se  |  ki zin *  *  *  de    |  SAZ An  | 
f6f4ed  | 
w:  mış tı  gö  | 
d2a4g4a2  | agfe f2g4a2  | agf2 e2f6  | \
w:  nül  *  aş kı  |  nı  *  yıl *  *  lar ca   |  i *  zin *  de    | 
f4 z2a6  | f2e2 d2^c4B2  | 
w:  *  An  |  mış *  *  tı  gö  | 
A6G4B2  | AGFE D2^c4d2  | ^cBB3AA6  | AcB4B6  | \
w:  nül  aş kı  |  nı  *  yıl *  *  lar ca   |  i *  zin *  de    |  SAZ *  *  Bir   | 
BAG2 d2c2 B2A2  | 
w:  göz *  *  *  le *  ri   | 
G2F4GF E2F2  | G2A4D4E2  | F2ED D^CD6  | \
w:  â *  hû  *  *  ki   |  ta mam  on  se  |  ki zin *  *  *  de    | 
AcB4B6  | BAG2 d2c2 B2A2  | 
w:  SAZ *  *  Bir   |  göz *  *  *  le *  ri   | 
G2F4GF E2F2  | G2A4D4E2  | F2ED D^CD6  | |


